src/assets/icons/standart.svg

<svg width="32" height="34" viewBox="0 0 32 34" fill="none" xmlns="http://www.w3.org/2000/svg">
	<path
			d="M17.9875 16.4887L17.9837 15.7387C17.7238 15.74 17.4831 15.8758 17.3476 16.0976C17.212 16.3194 17.201 16.5956 17.3184 16.8275L17.9875 16.4887ZM22.3422 25.0885L22.681 25.7576C22.8585 25.6678 22.993 25.5111 23.0549 25.3221C23.1169 25.1331 23.1012 24.9272 23.0113 24.7497L22.3422 25.0885ZM18.5201 27.0239L17.851 27.3627C18.0381 27.7323 18.4894 27.8802 18.8589 27.693L18.5201 27.0239ZM14.1653 18.4238L14.8344 18.085C14.717 17.8531 14.4879 17.6986 14.2289 17.6765C13.9699 17.6545 13.7179 17.7682 13.563 17.9769L14.1653 18.4238ZM9.88352 24.1937L9.13353 24.1975C9.13517 24.5204 9.3432 24.8059 9.64997 24.9064C9.95674 25.007 10.2934 24.8999 10.4858 24.6407L9.88352 24.1937ZM9.7862 5.03447L10.2331 4.43219C10.005 4.2629 9.70082 4.23703 9.44738 4.36536C9.19394 4.4937 9.03476 4.7542 9.03621 5.03828L9.7862 5.03447ZM13.6328 7.88904L13.1859 8.49132C13.414 8.66061 13.7182 8.68648 13.9717 8.55815L13.6328 7.88904ZM13.633 7.88899L14.3021 7.55017C14.2122 7.37272 14.0555 7.23822 13.8665 7.17628C13.6775 7.11434 13.4716 7.13002 13.2941 7.21988L13.633 7.88899ZM13.6331 7.8892L12.964 8.22802C13.0166 8.33189 13.0926 8.4221 13.1861 8.49148L13.6331 7.8892ZM25.172 16.4522L25.1758 17.2022C25.4986 17.2005 25.7842 16.9925 25.8847 16.6857C25.9852 16.3789 25.8782 16.0423 25.619 15.8499L25.172 16.4522ZM17.3184 16.8275L21.6731 25.4273L23.0113 24.7497L18.6567 16.1499L17.3184 16.8275ZM22.0034 24.4194L18.1813 26.3548L18.8589 27.693L22.681 25.7576L22.0034 24.4194ZM19.1892 26.6851L14.8344 18.085L13.4962 18.7627L17.851 27.3627L19.1892 26.6851ZM13.563 17.9769L9.28125 23.7468L10.4858 24.6407L14.7676 18.8708L13.563 17.9769ZM10.6335 24.1899L10.5362 5.03066L9.03621 5.03828L9.13353 24.1975L10.6335 24.1899ZM9.33925 5.63675L13.1859 8.49132L14.0798 7.28676L10.2331 4.43219L9.33925 5.63675ZM13.9717 8.55815L13.9718 8.5581L13.2941 7.21988L13.294 7.21994L13.9717 8.55815ZM12.9638 8.2278L12.964 8.22802L14.3022 7.55039L14.3021 7.55017L12.9638 8.2278ZM13.1861 8.49148L24.7251 17.0544L25.619 15.8499L14.08 7.28693L13.1861 8.49148ZM25.1682 15.7022L17.9837 15.7387L17.9914 17.2387L25.1758 17.2022L25.1682 15.7022Z"
			fill="black"/>
</svg>

<svg xmlns="http://www.w3.org/2000/svg" width="32" height="34" fill="none"><path fill="#000" d="m17.988 16.489-.004-.75a.75.75 0 0 0-.666 1.088zm4.354 8.6.339.669a.75.75 0 0 0 .33-1.008zm-3.822 1.935-.669.339a.75.75 0 0 0 1.008.33zm-4.355-8.6.67-.339a.75.75 0 0 0-1.272-.108zm-4.281 5.77-.75.004a.75.75 0 0 0 1.352.443zm-.098-19.16.447-.602a.75.75 0 0 0-1.197.606zm3.847 2.855-.447.602a.75.75 0 0 0 .786.067zm0 0 .67-.339a.75.75 0 0 0-1.009-.33zm0 0-.669.339a.75.75 0 0 0 .222.263zm11.539 8.563.004.75a.75.75 0 0 0 .443-1.352zm-7.854.375 4.355 8.6 1.338-.677-4.354-8.6zm4.685 7.592-3.822 1.936.678 1.338 3.822-1.935zm-2.814 2.266-4.355-8.6-1.338.678 4.355 8.6zm-5.626-8.708-4.282 5.77 1.205.894 4.282-5.77zm-2.93 6.213-.097-19.16-1.5.008.098 19.16zM9.34 5.637l3.847 2.854.894-1.204-3.847-2.855zm4.633 2.921-.678-1.338zm-1.008-.33 1.338-.678zm.222.263 11.54 8.563.893-1.204L14.08 7.287zm11.982 7.211-7.184.037.007 1.5 7.185-.037z"/></svg>
